src/images/partners/coding.svg

<svg width="185" height="56" viewBox="0 0 185 56" fill="none" xmlns="http://www.w3.org/2000/svg">
<path d="M19.8426 0H13.2583L26.8019 26.4795L20.0301 40.3119H28.0046C29.1964 40.3119 30.2848 39.633 30.8085 38.5618L35.5803 28.8136C36.3001 27.3437 36.285 25.6195 35.5393 24.1626L24.6984 2.96994C23.7652 1.1466 21.8901 0 19.8426 0Z" fill="url(#paint0_linear_3436_31)"/>
<path d="M19.8426 0H13.2583L26.8019 26.4795L20.0301 40.3119H28.0046C29.1964 40.3119 30.2848 39.633 30.8085 38.5618L35.5803 28.8136C36.3001 27.3437 36.285 25.6195 35.5393 24.1626L24.6984 2.96994C23.7652 1.1466 21.8901 0 19.8426 0Z" fill="url(#paint1_linear_3436_31)"/>
<path d="M24.6986 2.96985C30.0975 13.5263 30.5199 18.8864 26.8021 26.4794L20.0303 40.3118H28.0047C29.1966 40.3118 30.285 39.6329 30.8087 38.5617L35.5804 28.8135C36.3003 27.3436 36.2852 25.6194 35.5395 24.1625L24.6986 2.96985Z" fill="url(#paint2_linear_3436_31)"/>
<path style="mix-blend-mode:overlay" d="M24.6986 2.96985C30.0975 13.5263 30.5199 18.8864 26.8021 26.4794L20.0303 40.3118H28.0047C29.1966 40.3118 30.285 39.6329 30.8087 38.5617L35.5804 28.8135C36.3003 27.3436 36.2852 25.6194 35.5395 24.1625L24.6986 2.96985Z" fill="url(#paint3_linear_3436_31)"/>
<path opacity="0.42" d="M35.5392 24.1647L32.4809 18.1838C32.6899 21.6107 31.8623 24.7337 30.0821 28.3674L24.2349 40.3118H28.0022C29.1941 40.3118 30.2825 39.6329 30.8062 38.5618L35.578 28.8136C36.2978 27.3437 36.2827 25.6195 35.537 24.1625L35.5392 24.1647Z" fill="url(#paint4_linear_3436_31)"/>
<path d="M16.267 56.0004H22.8513L9.30767 29.5209L16.0795 15.6885H8.10504C6.91318 15.6885 5.82478 16.3674 5.30105 17.4385L0.529316 27.1846C-0.190539 28.6545 -0.175452 30.3787 0.570266 31.8357L11.4112 53.0304C12.3444 54.8538 14.2195 56.0004 16.267 56.0004Z" fill="url(#paint5_linear_3436_31)"/>
<path d="M16.267 56.0004H22.8513L9.30767 29.5209L16.0795 15.6885H8.10504C6.91318 15.6885 5.82478 16.3674 5.30105 17.4385L0.529316 27.1846C-0.190539 28.6545 -0.175452 30.3787 0.570266 31.8357L11.4112 53.0304C12.3444 54.8538 14.2195 56.0004 16.267 56.0004Z" fill="url(#paint6_linear_3436_31)"/>
<path d="M11.409 53.0279C6.01013 42.4714 5.5877 37.1113 9.30552 29.5183L16.0773 15.6859H8.10288C6.91103 15.6859 5.82262 16.3648 5.2989 17.436L0.529316 27.1842C-0.190539 28.6541 -0.175452 30.3783 0.570266 31.8352L11.4112 53.03L11.409 53.0279Z" fill="url(#paint7_linear_3436_31)"/>
<path d="M11.409 53.0279C6.01013 42.4714 5.5877 37.1113 9.30552 29.5183L16.0773 15.6859H8.10288C6.91103 15.6859 5.82262 16.3648 5.2989 17.436L0.529316 27.1842C-0.190539 28.6541 -0.175452 30.3783 0.570266 31.8352L11.4112 53.03L11.409 53.0279Z" fill="url(#paint8_linear_3436_31)"/>
<path opacity="0.32" d="M0.568111 31.8331L3.62642 37.8139C3.41736 34.3892 4.24498 31.2641 6.02522 27.6303L11.8724 15.6859H8.10504C6.91318 15.6859 5.82478 16.3648 5.30105 17.436L0.529316 27.1842C-0.190539 28.6541 -0.175452 30.3783 0.570266 31.8352L0.568111 31.8331Z" fill="url(#paint9_linear_3436_31)"/>
<path d="M61.7513 40.3839C60.0233 40.3839 58.4126 40.1066 56.9193 39.5519C55.4473 38.9759 54.1673 38.1653 53.0793 37.1199C51.9913 36.0746 51.138 34.8479 50.5193 33.4399C49.922 32.0319 49.6233 30.4853 49.6233 28.7999C49.6233 27.1146 49.922 25.5679 50.5193 24.1599C51.138 22.7519 51.9913 21.5253 53.0793 20.4799C54.1886 19.4346 55.4793 18.6346 56.9513 18.0799C58.4233 17.5039 60.034 17.2159 61.7833 17.2159C63.7246 17.2159 65.474 17.5573 67.0313 18.2399C68.61 18.9013 69.9326 19.8826 70.9993 21.1839L67.6713 24.2559C66.9033 23.3813 66.05 22.7306 65.1113 22.3039C64.1726 21.8559 63.1486 21.6319 62.0393 21.6319C60.994 21.6319 60.034 21.8026 59.1593 22.1439C58.2846 22.4853 57.5273 22.9759 56.8873 23.6159C56.2473 24.2559 55.746 25.0133 55.3833 25.8879C55.042 26.7626 54.8713 27.7333 54.8713 28.7999C54.8713 29.8666 55.042 30.8373 55.3833 31.7119C55.746 32.5866 56.2473 33.3439 56.8873 33.9839C57.5273 34.6239 58.2846 35.1146 59.1593 35.4559C60.034 35.7973 60.994 35.9679 62.0393 35.9679C63.1486 35.9679 64.1726 35.7546 65.1113 35.3279C66.05 34.8799 66.9033 34.2079 67.6713 33.3119L70.9993 36.3839C69.9326 37.6853 68.61 38.6773 67.0313 39.3599C65.474 40.0426 63.714 40.3839 61.7513 40.3839Z" fill="#3D3B3B"/>
<path d="M84.9113 40.3839C83.1406 40.3839 81.498 40.0959 79.9833 39.5199C78.49 38.9439 77.1886 38.1333 76.0793 37.0879C74.9913 36.0426 74.138 34.8159 73.5193 33.4079C72.922 31.9999 72.6233 30.4639 72.6233 28.7999C72.6233 27.1359 72.922 25.5999 73.5193 24.1919C74.138 22.7839 75.002 21.5573 76.1113 20.5119C77.2206 19.4666 78.522 18.6559 80.0153 18.0799C81.5086 17.5039 83.13 17.2159 84.8793 17.2159C86.65 17.2159 88.2713 17.5039 89.7433 18.0799C91.2366 18.6559 92.5273 19.4666 93.6153 20.5119C94.7246 21.5573 95.5886 22.7839 96.2073 24.1919C96.826 25.5786 97.1353 27.1146 97.1353 28.7999C97.1353 30.4639 96.826 32.0106 96.2073 33.4399C95.5886 34.8479 94.7246 36.0746 93.6153 37.1199C92.5273 38.1439 91.2366 38.9439 89.7433 39.5199C88.2713 40.0959 86.6606 40.3839 84.9113 40.3839ZM84.8793 35.9679C85.882 35.9679 86.7993 35.7973 87.6313 35.4559C88.4846 35.1146 89.2313 34.6239 89.8713 33.9839C90.5113 33.3439 91.002 32.5866 91.3433 31.7119C91.706 30.8373 91.8873 29.8666 91.8873 28.7999C91.8873 27.7333 91.706 26.7626 91.3433 25.8879C91.002 25.0133 90.5113 24.2559 89.8713 23.6159C89.2526 22.9759 88.5166 22.4853 87.6633 22.1439C86.81 21.8026 85.882 21.6319 84.8793 21.6319C83.8766 21.6319 82.9486 21.8026 82.0953 22.1439C81.2633 22.4853 80.5273 22.9759 79.8873 23.6159C79.2473 24.2559 78.746 25.0133 78.3833 25.8879C78.042 26.7626 77.8713 27.7333 77.8713 28.7999C77.8713 29.8453 78.042 30.8159 78.3833 31.7119C78.746 32.5866 79.2366 33.3439 79.8553 33.9839C80.4953 34.6239 81.242 35.1146 82.0953 35.4559C82.9486 35.7973 83.8766 35.9679 84.8793 35.9679Z" fill="#3D3B3B"/>
<path d="M101.031 39.9999V17.5999H111.207C113.639 17.5999 115.783 18.0693 117.639 19.0079C119.495 19.9253 120.946 21.2159 121.991 22.8799C123.037 24.5439 123.559 26.5173 123.559 28.7999C123.559 31.0613 123.037 33.0346 121.991 34.7199C120.946 36.3839 119.495 37.6853 117.639 38.6239C115.783 39.5413 113.639 39.9999 111.207 39.9999H101.031ZM106.215 35.7439H110.951C112.445 35.7439 113.735 35.4666 114.823 34.9119C115.933 34.3359 116.786 33.5253 117.383 32.4799C118.002 31.4346 118.311 30.2079 118.311 28.7999C118.311 27.3706 118.002 26.1439 117.383 25.1199C116.786 24.0746 115.933 23.2746 114.823 22.7199C113.735 22.1439 112.445 21.8559 110.951 21.8559H106.215V35.7439Z" fill="#3D3B3B"/>
<path d="M127.469 39.9999V17.5999H132.653V39.9999H127.469Z" fill="#3D3B3B"/>
<path d="M137.969 39.9999V17.5999H142.257L155.473 33.7279H153.393V17.5999H158.513V39.9999H154.257L141.009 23.8719H143.089V39.9999H137.969Z" fill="#3D3B3B"/>
<path d="M174.629 40.3839C172.858 40.3839 171.226 40.1066 169.733 39.5519C168.261 38.9759 166.97 38.1653 165.861 37.1199C164.773 36.0746 163.919 34.8479 163.301 33.4399C162.703 32.0319 162.405 30.4853 162.405 28.7999C162.405 27.1146 162.703 25.5679 163.301 24.1599C163.919 22.7519 164.783 21.5253 165.893 20.4799C167.002 19.4346 168.303 18.6346 169.797 18.0799C171.29 17.5039 172.933 17.2159 174.725 17.2159C176.709 17.2159 178.49 17.5466 180.069 18.2079C181.669 18.8693 183.013 19.8293 184.101 21.0879L180.773 24.1599C179.962 23.3066 179.077 22.6773 178.117 22.2719C177.157 21.8453 176.111 21.6319 174.981 21.6319C173.893 21.6319 172.901 21.8026 172.005 22.1439C171.109 22.4853 170.33 22.9759 169.669 23.6159C169.029 24.2559 168.527 25.0133 168.165 25.8879C167.823 26.7626 167.653 27.7333 167.653 28.7999C167.653 29.8453 167.823 30.8053 168.165 31.6799C168.527 32.5546 169.029 33.3226 169.669 33.9839C170.33 34.6239 171.098 35.1146 171.973 35.4559C172.869 35.7973 173.85 35.9679 174.917 35.9679C175.941 35.9679 176.933 35.8079 177.893 35.4879C178.874 35.1466 179.823 34.5813 180.741 33.7919L183.685 37.5359C182.469 38.4533 181.05 39.1573 179.429 39.6479C177.829 40.1386 176.229 40.3839 174.629 40.3839ZM178.949 36.8639V28.4479H183.685V37.5359L178.949 36.8639Z" fill="#3D3B3B"/>
<defs>
<linearGradient id="paint0_linear_3436_31" x1="13.2583" y1="20.1559" x2="36.1105" y2="20.1559" gradientUnits="userSpaceOnUse">
<stop stop-color="#8A0BFF"/>
<stop offset="1" stop-color="#2A0056"/>
</linearGradient>
<linearGradient id="paint1_linear_3436_31" x1="9.79265" y1="13.632" x2="29.399" y2="25.3695" gradientUnits="userSpaceOnUse">
<stop stop-color="#8A0BFF" stop-opacity="0"/>
<stop offset="1" stop-color="#2A0056"/>
</linearGradient>
<linearGradient id="paint2_linear_3436_31" x1="28.0694" y1="40.3118" x2="28.0694" y2="2.96985" gradientUnits="userSpaceOnUse">
<stop stop-color="#A553FF"/>
<stop offset="1" stop-color="#AE38FF"/>
</linearGradient>
<linearGradient id="paint3_linear_3436_31" x1="26.3646" y1="22.9361" x2="41.6626" y2="27.8889" gradientUnits="userSpaceOnUse">
<stop stop-color="#AF53FF"/>
<stop offset="0.16" stop-color="#AE4DFF" stop-opacity="0.8"/>
<stop offset="0.39" stop-color="#AE45FF" stop-opacity="0.52"/>
<stop offset="0.6" stop-color="#AE3FFF" stop-opacity="0.29"/>
<stop offset="0.78" stop-color="#AE3BFF" stop-opacity="0.13"/>
<stop offset="0.92" stop-color="#AE38FF" stop-opacity="0.04"/>
<stop offset="1" stop-color="#AE38FF" stop-opacity="0"/>
</linearGradient>
<linearGradient id="paint4_linear_3436_31" x1="16.338" y1="23.3349" x2="36.6125" y2="33.3094" gradientUnits="userSpaceOnUse">
<stop stop-color="#8A0BFF"/>
<stop offset="1" stop-color="#2A0056" stop-opacity="0"/>
</linearGradient>
<linearGradient id="paint5_linear_3436_31" x1="-0.000876765" y1="35.8444" x2="22.8513" y2="35.8444" gradientUnits="userSpaceOnUse">
<stop stop-color="#3D0056"/>
<stop offset="1" stop-color="#FF0BA2"/>
</linearGradient>
<linearGradient id="paint6_linear_3436_31" x1="11.0189" y1="30.6697" x2="24.4656" y2="49.1467" gradientUnits="userSpaceOnUse">
<stop stop-color="#3D0056"/>
<stop offset="1" stop-color="#E33FC5"/>
</linearGradient>
<linearGradient id="paint7_linear_3436_31" x1="8.03823" y1="53.0279" x2="8.03823" y2="15.6859" gradientUnits="userSpaceOnUse">
<stop stop-color="#DF38FF"/>
<stop offset="1" stop-color="#FF39FF"/>
</linearGradient>
<linearGradient id="paint8_linear_3436_31" x1="-4.35018" y1="26.0721" x2="23.2198" y2="38.6976" gradientUnits="userSpaceOnUse">
<stop stop-color="#9E0082"/>
<stop offset="1" stop-color="#FF39FF" stop-opacity="0"/>
</linearGradient>
<linearGradient id="paint9_linear_3436_31" x1="19.7714" y1="32.6629" x2="-0.503051" y2="22.6905" gradientUnits="userSpaceOnUse">
<stop stop-color="#8A0BFF"/>
<stop offset="1" stop-color="#2A0056" stop-opacity="0"/>
</linearGradient>
</defs>
</svg>

<svg width="185" height="56" fill="none" xmlns="http://www.w3.org/2000/svg"><path d="M19.843 0h-6.585l13.544 26.48-6.772 13.832h7.975c1.191 0 2.28-.679 2.803-1.75l4.772-9.748a5.195 5.195 0 0 0-.04-4.651L24.697 2.97A5.455 5.455 0 0 0 19.843 0z" fill="url(#paint0_linear_3436_31)"/><path d="M19.843 0h-6.585l13.544 26.48-6.772 13.832h7.975c1.191 0 2.28-.679 2.803-1.75l4.772-9.748a5.195 5.195 0 0 0-.04-4.651L24.697 2.97A5.455 5.455 0 0 0 19.843 0z" fill="url(#paint1_linear_3436_31)"/><path d="M24.699 2.97c5.398 10.556 5.82 15.916 2.103 23.51L20.03 40.311h7.975c1.192 0 2.28-.68 2.804-1.75l4.771-9.748a5.195 5.195 0 0 0-.04-4.651L24.698 2.97z" fill="url(#paint2_linear_3436_31)"/><path style="mix-blend-mode:overlay" d="M24.699 2.97c5.398 10.556 5.82 15.916 2.103 23.51L20.03 40.311h7.975c1.192 0 2.28-.68 2.804-1.75l4.771-9.748a5.195 5.195 0 0 0-.04-4.651L24.698 2.97z" fill="url(#paint3_linear_3436_31)"/><path opacity=".42" d="M35.54 24.165l-3.06-5.981c.21 3.427-.618 6.55-2.398 10.183l-5.847 11.945h3.767c1.192 0 2.28-.68 2.804-1.75l4.772-9.748a5.195 5.195 0 0 0-.041-4.651l.002.002z" fill="url(#paint4_linear_3436_31)"/><path d="M16.267 56h6.584L9.308 29.52l6.771-13.832H8.105c-1.192 0-2.28.68-2.804 1.75L.529 27.186a5.195 5.195 0 0 0 .041 4.65L11.411 53.03A5.455 5.455 0 0 0 16.267 56z" fill="url(#paint5_linear_3436_31)"/><path d="M16.267 56h6.584L9.308 29.52l6.771-13.832H8.105c-1.192 0-2.28.68-2.804 1.75L.529 27.186a5.195 5.195 0 0 0 .041 4.65L11.411 53.03A5.455 5.455 0 0 0 16.267 56z" fill="url(#paint6_linear_3436_31)"/><path d="M11.409 53.028C6.01 42.47 5.588 37.11 9.306 29.518l6.771-13.832H8.103c-1.192 0-2.28.679-2.804 1.75l-4.77 9.748a5.195 5.195 0 0 0 .041 4.651L11.411 53.03l-.002-.002z" fill="url(#paint7_linear_3436_31)"/><path d="M11.409 53.028C6.01 42.47 5.588 37.11 9.306 29.518l6.771-13.832H8.103c-1.192 0-2.28.679-2.804 1.75l-4.77 9.748a5.195 5.195 0 0 0 .041 4.651L11.411 53.03l-.002-.002z" fill="url(#paint8_linear_3436_31)"/><path opacity=".32" d="M.568 31.833l3.058 5.98c-.209-3.424.619-6.549 2.4-10.183l5.846-11.944H8.105c-1.192 0-2.28.679-2.804 1.75L.529 27.184a5.195 5.195 0 0 0 .041 4.651l-.002-.002z" fill="url(#paint9_linear_3436_31)"/><path d="M61.751 40.384c-1.728 0-3.338-.277-4.832-.832a11.55 11.55 0 0 1-3.84-2.432 11.419 11.419 0 0 1-2.56-3.68c-.597-1.408-.896-2.955-.896-4.64 0-1.685.299-3.232.896-4.64a11.42 11.42 0 0 1 2.56-3.68 11.49 11.49 0 0 1 3.872-2.4c1.472-.576 3.083-.864 4.832-.864 1.942 0 3.691.341 5.248 1.024A10.09 10.09 0 0 1 71 21.184l-3.328 3.072c-.768-.875-1.621-1.525-2.56-1.952-.938-.448-1.962-.672-3.072-.672-1.045 0-2.005.17-2.88.512a6.53 6.53 0 0 0-2.272 1.472 6.927 6.927 0 0 0-1.504 2.272c-.341.875-.512 1.845-.512 2.912s.171 2.037.512 2.912a6.926 6.926 0 0 0 1.504 2.272c.64.64 1.398 1.13 2.272 1.472.875.341 1.835.512 2.88.512 1.11 0 2.134-.213 3.072-.64.939-.448 1.792-1.12 2.56-2.016L71 36.384a10.372 10.372 0 0 1-3.968 2.976c-1.557.683-3.317 1.024-5.28 1.024zm23.16 0c-1.77 0-3.413-.288-4.928-.864-1.493-.576-2.794-1.387-3.904-2.432a11.419 11.419 0 0 1-2.56-3.68c-.597-1.408-.896-2.944-.896-4.608 0-1.664.299-3.2.896-4.608a11.188 11.188 0 0 1 2.592-3.68c1.11-1.045 2.411-1.856 3.904-2.432 1.494-.576 3.115-.864 4.864-.864 1.771 0 3.392.288 4.864.864 1.494.576 2.784 1.387 3.872 2.432a11.188 11.188 0 0 1 2.592 3.68c.619 1.387.928 2.923.928 4.608 0 1.664-.309 3.21-.928 4.64a11.187 11.187 0 0 1-2.592 3.68c-1.088 1.024-2.378 1.824-3.872 2.4-1.472.576-3.082.864-4.832.864zm-.032-4.416c1.003 0 1.92-.17 2.752-.512a6.598 6.598 0 0 0 2.24-1.472 6.528 6.528 0 0 0 1.472-2.272c.363-.875.544-1.845.544-2.912s-.181-2.037-.544-2.912a6.529 6.529 0 0 0-1.472-2.272 6.27 6.27 0 0 0-2.208-1.472c-.853-.341-1.781-.512-2.784-.512-1.002 0-1.93.17-2.784.512a6.68 6.68 0 0 0-2.208 1.472 6.927 6.927 0 0 0-1.504 2.272c-.341.875-.512 1.845-.512 2.912 0 1.045.171 2.016.512 2.912a7.196 7.196 0 0 0 1.472 2.272c.64.64 1.387 1.13 2.24 1.472.854.341 1.782.512 2.784.512zM101.031 40V17.6h10.176c2.432 0 4.576.47 6.432 1.408 1.856.917 3.307 2.208 4.352 3.872 1.046 1.664 1.568 3.637 1.568 5.92 0 2.261-.522 4.235-1.568 5.92-1.045 1.664-2.496 2.965-4.352 3.904-1.856.917-4 1.376-6.432 1.376h-10.176zm5.184-4.256h4.736c1.494 0 2.784-.277 3.872-.832 1.11-.576 1.963-1.387 2.56-2.432.619-1.045.928-2.272.928-3.68 0-1.43-.309-2.656-.928-3.68-.597-1.045-1.45-1.845-2.56-2.4-1.088-.576-2.378-.864-3.872-.864h-4.736v13.888zM127.469 40V17.6h5.184V40h-5.184zm10.5 0V17.6h4.288l13.216 16.128h-2.08V17.6h5.12V40h-4.256l-13.248-16.128h2.08V40h-5.12zm36.66.384c-1.771 0-3.403-.277-4.896-.832a11.91 11.91 0 0 1-3.872-2.432 11.408 11.408 0 0 1-2.56-3.68c-.598-1.408-.896-2.955-.896-4.64 0-1.685.298-3.232.896-4.64a11.167 11.167 0 0 1 2.592-3.68 11.414 11.414 0 0 1 3.904-2.4c1.493-.576 3.136-.864 4.928-.864 1.984 0 3.765.33 5.344.992 1.6.661 2.944 1.621 4.032 2.88l-3.328 3.072c-.811-.853-1.696-1.483-2.656-1.888-.96-.427-2.006-.64-3.136-.64-1.088 0-2.08.17-2.976.512a6.795 6.795 0 0 0-2.336 1.472 6.916 6.916 0 0 0-1.504 2.272c-.342.875-.512 1.845-.512 2.912 0 1.045.17 2.005.512 2.88a7.287 7.287 0 0 0 1.504 2.304 6.86 6.86 0 0 0 2.304 1.472c.896.341 1.877.512 2.944.512a9.35 9.35 0 0 0 2.976-.48c.981-.341 1.93-.907 2.848-1.696l2.944 3.744c-1.216.917-2.635 1.621-4.256 2.112-1.6.49-3.2.736-4.8.736zm4.32-3.52v-8.416h4.736v9.088l-4.736-.672z" fill="#3D3B3B"/><defs><linearGradient id="paint0_linear_3436_31" x1="13.258" y1="20.156" x2="36.111" y2="20.156" gradientUnits="userSpaceOnUse"><stop stop-color="#8A0BFF"/><stop offset="1" stop-color="#2A0056"/></linearGradient><linearGradient id="paint1_linear_3436_31" x1="9.793" y1="13.632" x2="29.399" y2="25.369" gradientUnits="userSpaceOnUse"><stop stop-color="#8A0BFF" stop-opacity="0"/><stop offset="1" stop-color="#2A0056"/></linearGradient><linearGradient id="paint2_linear_3436_31" x1="28.069" y1="40.312" x2="28.069" y2="2.97" gradientUnits="userSpaceOnUse"><stop stop-color="#A553FF"/><stop offset="1" stop-color="#AE38FF"/></linearGradient><linearGradient id="paint3_linear_3436_31" x1="26.365" y1="22.936" x2="41.663" y2="27.889" gradientUnits="userSpaceOnUse"><stop stop-color="#AF53FF"/><stop offset=".16" stop-color="#AE4DFF" stop-opacity=".8"/><stop offset=".39" stop-color="#AE45FF" stop-opacity=".52"/><stop offset=".6" stop-color="#AE3FFF" stop-opacity=".29"/><stop offset=".78" stop-color="#AE3BFF" stop-opacity=".13"/><stop offset=".92" stop-color="#AE38FF" stop-opacity=".04"/><stop offset="1" stop-color="#AE38FF" stop-opacity="0"/></linearGradient><linearGradient id="paint4_linear_3436_31" x1="16.338" y1="23.335" x2="36.612" y2="33.309" gradientUnits="userSpaceOnUse"><stop stop-color="#8A0BFF"/><stop offset="1" stop-color="#2A0056" stop-opacity="0"/></linearGradient><linearGradient id="paint5_linear_3436_31" x1="-.001" y1="35.844" x2="22.851" y2="35.844" gradientUnits="userSpaceOnUse"><stop stop-color="#3D0056"/><stop offset="1" stop-color="#FF0BA2"/></linearGradient><linearGradient id="paint6_linear_3436_31" x1="11.019" y1="30.67" x2="24.466" y2="49.147" gradientUnits="userSpaceOnUse"><stop stop-color="#3D0056"/><stop offset="1" stop-color="#E33FC5"/></linearGradient><linearGradient id="paint7_linear_3436_31" x1="8.038" y1="53.028" x2="8.038" y2="15.686" gradientUnits="userSpaceOnUse"><stop stop-color="#DF38FF"/><stop offset="1" stop-color="#FF39FF"/></linearGradient><linearGradient id="paint8_linear_3436_31" x1="-4.35" y1="26.072" x2="23.22" y2="38.698" gradientUnits="userSpaceOnUse"><stop stop-color="#9E0082"/><stop offset="1" stop-color="#FF39FF" stop-opacity="0"/></linearGradient><linearGradient id="paint9_linear_3436_31" x1="19.771" y1="32.663" x2="-.503" y2="22.691" gradientUnits="userSpaceOnUse"><stop stop-color="#8A0BFF"/><stop offset="1" stop-color="#2A0056" stop-opacity="0"/></linearGradient></defs></svg>
